!!!!SEGMENT: pl-kk--kk-i-2--042-001_lilius-franciszek--missa-pro-tempore-pashali-kyrie.krn
!!!cenid: 16xx:1662
!!!COM: Lilius, Franciszek
!!!COM-rismID: pe30020509
!!!CDT: ~1600-1657
!!!CNT: Polish
!!!OPR: Missa pro tempore Pashali
!!!OTL: Kyrie
!!!OMV: 001
!!!PDT:
!!!AGN: Sacred; Mass
!!!SMS-siglum: PL-Kk
!!!SMS-shelfmark: Kk.I.2
!!!SMS-shelfwork: 042-001 M
!!!NIFC-rismSourceID: 300258060
!!!NIFC-islandoraID: pl-kk:750
!!!URL-pdf-islandora: https://repozytorium.nifc.pl/islandora/object/pl-kk%3A750/datastream/PDF/view
!!!URL-scan: https://polish.musicsources.pl/pl/lokalizacje/galeria/rekopisy/5828 @EN{Scan on Polish Music Sources Website} @PL{Skany w portalu Dziedzictwo Muzyki Polskiej w otwartym dostępie}
!!!ONB-nifc: Części mszy: Kyrie, Gloria, Credo, Sanctus, Agnus Dei; skany: C: 0064-0065; A: 0168; T: 0269; B: 0367-0368;
!!!AIN: 1 alto 1 bass 1 soprn 1 tenor
!!!key: G:mix
**kern	**text	**kern	**text	**kern	**text	**kern	**text
*part4	*part4	*part3	*part3	*part2	*part2	*part1	*part1
*staff4	*staff4	*staff3	*staff3	*staff2	*staff2	*staff1	*staff1
*I"BASVS	*	*I"TENOR	*	*I"ALTVS	*	*I"DISCANTVS	*
*I'B	*	*I'T	*	*I'A	*	*I'S	*
*ICvox	*	*ICvox	*	*ICvox	*	*ICvox	*
*Ibass	*	*Itenor	*	*Ialto	*	*Isoprn	*
*clefF4	*	*clefC4	*	*clefC4	*	*clefC3	*
*G:mix	*	*G:mix	*	*G:mix	*	*G:mix	*
*k[]	*	*k[]	*	*k[]	*	*k[]	*
*M2/1	*	*M2/1	*	*M2/1	*	*M2/1	*
*met(c|)	*	*met(c|)	*	*met(c|)	*	*met(c|)	*
=1	=1	=1	=1	=1	=1	=1	=1
*xywh-pl-kk--i-2--0367:7877,748,6463,1036	*xywh-pl-kk--i-2--0367:7877,748,6463,1036	*xywh-pl-kk--i-2--0269:1832,601,5819,966	*xywh-pl-kk--i-2--0269:1832,601,5819,966	*xywh-pl-kk--i-2--0168:1472,465,6219,1138	*xywh-pl-kk--i-2--0168:1472,465,6219,1138	*xywh-pl-kk--i-2--0064:8008,466,6123,1257	*xywh-pl-kk--i-2--0064:8008,466,6123,1257
!	!	!	!	!	!	!LO:TX:t=P:problem= Discantus zapisany w kluczu altowym	!
!LO:TX:a:t=Paſchale Fran&colon; Lilij.	!	!	!	!	!	!	!
*	*	*lig	*	*	*	*	*
!	!	!LO:N:vis=0	!	!	!	!	!
!	!	!	!	!	!	!LO:TX:t=P:problem=kreska pseudotaktowa	!
!	!	!LO:TX:a:t=Miſsa. A. 4. Tempore\nPaſchali. M. Franc.\nGigli.	!	!LO:TX:a:t=Miſsa. A. 4. Te(m)pore Paſchali.\nM. Franc.\nGigli.	!	!LO:TX:a:t=Sacrum Paschale Fran&colon; Lilij.	!
!	!	!	!	!LO:TX:t=P:problem= Altus zapisany w kluczu tenorowym	!	!	!
0r	.	1G	Ky-	0r	.	1r	.
!	!	!LO:N:vis=0	!	!	!	!	!
.	.	1A	.	.	.	1c	Ky-
*	*	*Xlig	*	*	*	*	*
=2	=2	=2	=2	=2	=2	=2	=2
*lig	*	*	*	*	*	*	*
!LO:N:vis=0	!	!	!	!	!	!	!
1C	Ky-	1c	-ri-	0r	.	2e\	-ri-
!	!	!	!	!	!	!LO:TX:t=P:problem=kreska pseudotaktowa	!
.	.	.	.	.	.	2g\	.
!LO:N:vis=0	!	!	!	!	!	!	!
1D	.	1A	.	.	.	2f\	-e
.	.	.	.	.	.	2.f\	e-
*Xlig	*	*	*	*	*	*	*
=3	=3	=3	=3	=3	=3	=3	=3
*	*	*lig	*	*	*	*	*
!	!	!LO:N:vis=0	!	!LO:TX:t=P:problem=kreska pseudotaktowa	!	!	!
1.F	-ri-	1A	-e	1r	.	.	.
.	.	.	.	.	.	4g\	.
!	!	!	!	!	!	!LO:TX:t=P:problem=kreska pseudotaktowa	!
.	.	.	.	.	.	2a\	.
!	!	!LO:N:vis=0	!	!	!	!	!
.	.	1c	.	1G	Ky-	1g	.
2E\	.	.	.	.	.	.	.
!LO:TX:t=P:problem=kreska pseudotaktowa	!	!	!	!	!	!	!
*	*	*Xlig	*	*	*	*	*
=4	=4	=4	=4	=4	=4	=4	=4
2F\	-e	0c	e-	2A/	-ri-	1.f	.
!	!	!	!	!LO:TX:t=P:problem=kreska pseudotaktowa	!	!	!
2.F\	e-	.	.	2c\	.	.	.
.	.	.	.	1A	-e	.	.
4G\	.	.	.	.	.	.	.
!LO:TX:t=P:problem=kreska pseudotaktowa	!	!	!	!	!	!LO:TX:t=P:problem=kreska pseudotaktowa	!
2A\	.	.	.	.	.	2e\	ley-
=5	=5	=5	=5	=5	=5	=5	=5
2.G\	.	1B	.	2d\	e-	2g\	-ſon
.	.	.	.	1d	-ley-	4r	.
!	!	!	!	!	!	!LO:TX:t=P:problem=kreska pseudotaktowa	!
4F\	.	.	.	.	.	4d\	ky-
1E	-ley-	1G	.	.	.	2e\	-ri-
!	!	!	!	!LO:TX:t=P:problem=kreska pseudotaktowa	!	!	!
.	.	.	.	2c#X\	.	1g	-e
=6	=6	=6	=6	=6	=6	=6	=6
!LO:TX:t=P:problem=kreska pseudotaktowa	!	!	!	!	!	!	!
*	*	*lig	*	*	*	*	*
!	!	!LO:N:vis=0	!	!	!	!	!
1D	-ſon	1A	.	2d\	-ſon	.	.
!	!	!	!	!	!	!LO:TX:t=P:problem=kreska pseudotaktowa	!
*	*ij	*	*	*	*ij	*	*
.	.	.	.	2D/	Ky-	2f\	e-
!	!	!LO:N:vis=0	!	!	!	!	!
2r	.	1G	.	2E/	-ri-	2g\	-ley-
2GG/	Ky-	.	.	2G/	-e	2d\	ſon
!	!	!	!	!LO:TX:t=P:problem=kreska pseudotaktowa	!	!LO:TX:t=P:problem=kreska pseudotaktowa	!
*	*	*Xlig	*	*	*	*	*
=7	=7	=7	=7	=7	=7	=7	=7
*	*	*lig	*	*	*	*	*
!	!	!LO:N:vis=0	!	!	!	!	!
2AA/	-ri-	1E	.	2.c\	e-	2c/	ky-
!	!	!	!	!	!	!LO:TX:t=P:problem=kreska pseudotaktowa	!
2C/	.	.	.	.	.	2e\	-ri-
.	.	.	.	4B\	.	.	.
!	!	!LO:N:vis=0	!	!LO:TX:t=P:problem=kreska pseudotaktowa	!	!	!
2FF/	-e	1F	.	1A	.	4d\	-e
.	.	.	.	.	.	4c/	.
2AA/	e-	.	.	.	.	1c	e-
*	*	*Xlig	*	*	*	*	*
=8	=8	=8	=8	=8	=8	=8	=8
0GG	-ley-	1G	.	1.d	.	.	.
.	.	.	.	.	.	4B/	.
.	.	.	.	.	.	4A/	.
.	.	1G	-ley-	.	.	1B	-ley-
.	.	.	.	2d\	-ley-	.	.
=9	=9	=9	=9	=9	=9	=9	=9
0C;	-ſon	0E;	-ſon.	0c;>	-ſon	0c;	-ſon.
*	*Xij	*	*	*	*Xij	*	*
!LO:LB:g=original	!	!LO:LB:g=original	!	!LO:LB:g=original	!	!LO:LB:g=original	!
=10||	=10||	=10||	=10||	=10||	=10||	=10||	=10||
*xywh-pl-kk--i-2--0367:7900,1588,5948,953	*xywh-pl-kk--i-2--0367:7900,1588,5948,953	*xywh-pl-kk--i-2--0269:1814,1326,6222,1029	*xywh-pl-kk--i-2--0269:1814,1326,6222,1029	*xywh-pl-kk--i-2--0168:1825,1405,5856,940	*xywh-pl-kk--i-2--0168:1825,1405,5856,940	*xywh-pl-kk--i-2--0064:8077,1422,5796,1033	*xywh-pl-kk--i-2--0064:8077,1422,5796,1033
*M2/1	*	*M2/1	*	*M2/1	*	*M2/1	*
*met(c|)	*	*met(c|)	*	*met(c|)	*	*met(c|)	*
*	*	*lig	*	*	*	*	*
!	!	!	!	!LO:TX:t=P:problem=kreska pseudotaktowa	!	!LO:TX:t=P:problem=kreska pseudotaktowa	!
!	!	!LO:N:vis=0	!	!	!	!	!
0r	.	1c	Chry-	0r	.	0r	.
!	!	!LO:N:vis=0	!	!	!	!	!
.	.	1d	.	.	.	.	.
*	*	*Xlig	*	*	*	*	*
=11	=11	=11	=11	=11	=11	=11	=11
*	*	*lig	*	*lig	*	*	*
!	!	!LO:N:vis=0	!	!LO:N:vis=0	!	!	!
0r	.	1c	-ſte	1F	Chri-	0r	.
!	!	!LO:N:vis=0	!	!LO:N:vis=0	!	!	!
.	.	1B	.	1G	.	.	.
*	*	*Xlig	*	*Xlig	*	*	*
=12	=12	=12	=12	=12	=12	=12	=12
!LO:TX:t=P:problem=kreska pseudotaktowa	!	!	!	!	!	!	!
*	*	*lig	*	*	*	*lig	*
!	!	!LO:N:vis=0	!	!	!	!	!
!	!	!	!	!	!	!LO:N:vis=0	!
0r	.	1A	.	1F	-ſte	1f	Chry-
!	!	!LO:N:vis=0	!	!	!	!	!
!	!	!	!	!	!	!LO:N:vis=0	!
.	.	1c	.	2E/	e-	1g	.
.	.	.	.	4C/	.	.	.
.	.	.	.	4D/	.	.	.
!	!	!	!	!LO:TX:t=P:problem=kreska pseudotaktowa	!	!	!
*	*	*Xlig	*	*	*	*Xlig	*
=13	=13	=13	=13	=13	=13	=13	=13
*lig	*	*lig	*	*	*	*	*
!LO:N:vis=0	!	!LO:N:vis=0	!	!	!	!	!
1C	Chry-	1c	e-	4E/	.	1g	-ſte
.	.	.	.	4F/	.	.	.
.	.	.	.	4G/	.	.	.
!	!	!	!	!LO:TX:t=P:problem=kreska pseudotaktowa	!	!	!
.	.	.	.	4E/	.	.	.
!LO:N:vis=0	!	!LO:N:vis=0	!	!	!	!LO:TX:t=P:problem=kreska pseudotaktowa	!
1D	.	1A	.	4F/	.	1f	e-
.	.	.	.	4G/	.	.	.
.	.	.	.	4A/	.	.	.
.	.	.	.	4F/	.	.	.
!	!	!	!	!LO:TX:t=P:problem=kreska pseudotaktowa	!	!	!
*Xlig	*	*Xlig	*	*	*	*	*
=14	=14	=14	=14	=14	=14	=14	=14
*	*	*lig	*	*	*	*	*
!	!	!LO:N:vis=0	!	!	!	!	!
1C	-ſte	1c	.	2.G/	.	1e	-ley-
.	.	.	.	4A/	.	.	.
!LO:TX:t=P:problem=kreska pseudotaktowa	!	!	!	!	!	!	!
!	!	!LO:N:vis=0	!	!	!	!	!
1BB	e-	1G	.	4B\	.	2d\	-ſon
.	.	.	.	4c\	.	.	.
.	.	.	.	4d\	.	2g\	Chr(i-
.	.	.	.	4B\	.	.	.
!	!	!	!	!LO:TX:t=P:problem=kreska pseudotaktowa	!	!LO:TX:t=P:problem=kreska pseudotaktowa	!
*	*	*Xlig	*	*	*	*	*
=15	=15	=15	=15	=15	=15	=15	=15
*	*	*lig	*	*	*	*	*
!	!	!LO:N:vis=0	!	!	!	!	!
2.AA/	.	1F	.	2c\	.	0a	-st)e
!	!	!	!	!LO:TX:t=P:problem=kreska pseudotaktowa	!	!	!
.	.	.	.	2c\	.	.	.
4GG/	.	.	.	.	.	.	.
!	!	!LO:N:vis=0	!	!	!	!	!
2FF/	.	1A	.	2.f\	-ley-	.	.
2F\	.	.	.	.	.	.	.
.	.	.	.	4e\	.	.	.
*	*	*Xlig	*	*	*	*	*
=16	=16	=16	=16	=16	=16	=16	=16
*	*	*lig	*	*	*	*	*
!	!	!LO:N:vis=0	!	!LO:TX:t=P:problem=kreska pseudotaktowa	!	!	!
1G	.	1B	.	1d	-ſon	2.g\	e-
!	!	!	!	!	!	!LO:TX:t=P:problem=kreska pseudotaktowa	!
.	.	.	.	.	.	4f\	.
!	!	!LO:N:vis=0	!	!	!	!	!
1A	.	1c	.	2r	.	4e\	.
.	.	.	.	.	.	4d\	.
.	.	.	.	2c\	chr(i-	4e\	.
.	.	.	.	.	.	4f#X\	.
*	*	*Xlig	*	*	*	*	*
=17	=17	=17	=17	=17	=17	=17	=17
*	*	*lig	*	*	*	*	*
!	!	!LO:N:vis=0	!	!	!	!	!
2G\	.	1B	.	1d	-st)e	2g\	.
!LO:TX:t=P:problem=kreska pseudotaktowa	!	!	!	!	!	!LO:TX:t=P:problem=kreska pseudotaktowa	!
2GG/	.	.	.	.	.	2g\	-ley-
!	!	!	!	!LO:TX:t=P:problem=kreska pseudotaktowa	!	!	!
!	!	!LO:N:vis=0	!	!	!	!	!
4AA/	.	1A	.	1c	e-	2e\	-ſon
4BB/	.	.	.	.	.	.	.
4C/	.	.	.	.	.	2.e\	chr(i-
4D/	.	.	.	.	.	.	.
*	*	*Xlig	*	*	*	*	*
=18	=18	=18	=18	=18	=18	=18	=18
2E\	.	1G	.	4B\	.	.	.
.	.	.	.	4A\	.	4f\	-st)e
2E\	.	.	.	4B\	.	1g	e-
.	.	.	.	4c\	.	.	.
1D	-ley-	1A	-ley-	2.d\	.	.	.
.	.	.	.	.	.	2f#X\	-ley-
!	!	!	!	!LO:TX:t=P:problem=kreska pseudotaktowa	!	!	!
.	.	.	.	4d\	-ley-	.	.
=19	=19	=19	=19	=19	=19	=19	=19
0GG;	-ſon.	0G;	-ſon	0B;>	-ſon.	0g;>	-ſon.
!LO:LB:g=original	!	!LO:LB:g=original	!	!LO:LB:g=original	!	!LO:LB:g=original	!
=20||	=20||	=20||	=20||	=20||	=20||	=20||	=20||
*xywh-pl-kk--i-2--0367:7806,2436,6243,870	*xywh-pl-kk--i-2--0367:7806,2436,6243,870	*	*	*xywh-pl-kk--i-2--0168:1877,2983,5839,897	*xywh-pl-kk--i-2--0168:1877,2983,5839,897	*xywh-pl-kk--i-2--0064:8086,2162,5925,1059	*xywh-pl-kk--i-2--0064:8086,2162,5925,1059
*M2/1	*	*M2/1	*	*M2/1	*	*M2/1	*
*met(c|)	*	*met(c|)	*	*met(c|)	*	*met(c|)	*
!LO:TX:t=P:problem=kreska pseudotaktowa	!	!	!	!	!	!	!
*	*	*lig	*	*	*	*	*
!	!	!LO:N:vis=0	!	!	!	!LO:TX:t=P:problem=kreska pseudotaktowa	!
1r	.	1G	Ky-	1r	.	1r	.
!	!	!LO:N:vis=0	!	!	!	!	!
2.G\	Ky-	1B	.	2.G/	Ky-	2.d\	Ky-
4G\	-ri-	.	.	4G/	-ri-	4d\	-ri-
!	!	!	!	!LO:TX:t=P:problem=kreska pseudotaktowa	!	!	!
*	*	*Xlig	*	*	*	*	*
=21	=21	=21	=21	=21	=21	=21	=21
*	*	*lig	*	*	*	*	*
!	!	!LO:N:vis=0	!	!	!	!	!
2F\	-e	1c	-ri-	4A\	-e	2f\	-e
.	.	.	.	4B\	.	.	.
!	!	!	!	!	!	!LO:TX:t=P:problem=kreska pseudotaktowa	!
2A\	e-	.	.	1c	.	2e\	e-
!	!	!LO:N:vis=0	!	!	!	!	!
1G	-ley-	1d	.	.	.	1g	-ley-
.	.	.	.	2B\	.	.	.
!	!	!	!	!LO:TX:t=P:problem=kreska pseudotaktowa	!	!	!
*	*	*Xlig	*	*	*	*	*
=22	=22	=22	=22	=22	=22	=22	=22
!LO:TX:t=P:problem=kreska pseudotaktowa	!	!	!	!	!	!	!
1C	-ſon	1c	-e	1c	.	2e\	-ſon
*	*ij	*	*	*	*	*	*ij
.	.	.	.	.	.	2.g\	Ky-
2.GG/	Ky-	1d	.	2.B\	.	.	.
.	.	.	.	.	.	4g\	-ri-
!	!	!	!	!	!	!LO:TX:t=P:problem=kreska pseudotaktowa	!
.	.	.	.	.	.	2g\	-e
!	!	!	!	!LO:TX:t=P:problem=kreska pseudotaktowa	!	!	!
4GG/	-ri-	.	.	4B\	.	.	.
=23	=23	=23	=23	=23	=23	=23	=23
*	*	*lig	*	*	*	*	*
!	!	!LO:N:vis=0	!	!	!	!	!
2C/	-e	1e	.	2.c\	.	4e\	e-
.	.	.	.	.	.	4f\	.
2C/	e-	.	.	.	.	1g	-ley-
.	.	.	.	4B\	.	.	.
!	!	!LO:N:vis=0	!	!	!	!	!
1D	-ley-	1d	.	4A\	.	.	.
.	.	.	.	4G/	.	.	.
.	.	.	.	2A\	.	2f#X\	.
!	!	!	!	!LO:TX:t=P:problem=kreska pseudotaktowa	!	!LO:TX:t=P:problem=kreska pseudotaktowa	!
*	*	*Xlig	*	*	*	*	*
=24	=24	=24	=24	=24	=24	=24	=24
*	*	*lig	*	*	*	*	*
!	!	!LO:N:vis=0	!	!	!	!	!
2GG/	-ſon	1B	.	2B\	.	2g\	-ſon
*	*ij	*	*	*	*	*	*
2.G\	ky-	.	.	2.B\	.	2.g\	Ky-
!	!	!LO:N:vis=0	!	!	!	!	!
.	.	1d	.	.	.	.	.
4G\	-ri-	.	.	4B\	.	4g\	-ri-
2F#X\	-e	.	.	2d\	.	2a\	-e
!LO:TX:t=P:problem=kreska pseudotaktowa	!	!	!	!LO:TX:t=P:problem=kreska pseudotaktowa	!	!LO:TX:t=P:problem=kreska pseudotaktowa	!
*	*	*Xlig	*	*	*	*	*
=25	=25	=25	=25	=25	=25	=25	=25
*	*	*lig	*	*	*	*	*
!	!	!LO:N:vis=0	!	!	!	!	!
2G\	e-	1d	e-	2B\	.	2g\	e-
2D/	.	.	.	2A/	.	2f\	.
!	!	!LO:N:vis=0	!	!	!	!	!
4AA/	.	1c	.	1.A	.	1.e	-ley-
4BB/	.	.	.	.	.	.	.
4C/	.	.	.	.	.	.	.
4D/	.	.	.	.	.	.	.
*	*	*Xlig	*	*	*	*	*
=26	=26	=26	=26	=26	=26	=26	=26
*	*	*lig	*	*	*	*	*
!	!	!LO:N:vis=0	!	!	!	!	!
2E\	.	1B	.	.	.	.	.
!	!	!	!	!LO:TX:t=P:problem=kreska pseudotaktowa	!	!LO:TX:t=P:problem=kreska pseudotaktowa	!
2E\	-key-	.	.	2G#X/	ley-	2e\	-ſon
!LO:TX:t=P:problem=kreska pseudotaktowa	!	!	!	!	!	!	!
!	!	!LO:N:vis=0	!	!	!	!	!
1AA,	-ſon	1A	.	1A	-ſon	2c/	ky-
.	.	.	.	.	.	2c/	-ri-
*	*	*Xlig	*	*	*	*	*
=27	=27	=27	=27	=27	=27	=27	=27
2C/	ky-	1G	.	2r	.	2e\	-e
!	!	!	!	!LO:TX:t=P:problem=kreska pseudotaktowa	!	!LO:TX:t=P:problem=kreska pseudotaktowa	!
2E\	-ri-	.	.	2Gn/	.	2g\	e-
*	*	*lig	*	*	*	*	*
!	!	!LO:N:vis=0	!	!	!	!	!
2G\	-e	1G	.	2.B\	.	2d\	.
2E\	e-	.	.	.	.	2e\	.
!	!	!	!	!LO:TX:a:t=P:problem=# above	!	!	!
.	.	.	.	4c#X\	.	.	.
=28	=28	=28	=28	=28	=28	=28	=28
!	!	!LO:N:vis=0	!	!	!	!	!
2D/	.	1A	.	1.d	.	4f\	.
*	*	*	*	*	*	*custos:a	*
.	.	.	.	.	.	4g\	.
*	*	*	*	*	*	*xywh-pl-kk--i-2--0064:8138,3050,5787,938	*xywh-pl-kk--i-2--0064:8138,3050,5787,938
!	!	!	!	!	!	!LO:LB:g=original	!
2D/	.	.	.	.	.	2.a\	.
*	*	*Xlig	*	*	*	*	*
*	*	*lig	*	*	*	*	*
!	!	!LO:N:vis=0	!	!	!	!	!
2.BB/	.	1B	.	.	.	.	.
.	.	.	.	.	.	4g\	.
.	.	.	.	2d\	.	1g	.
4C/	.	.	.	.	.	.	.
=29	=29	=29	=29	=29	=29	=29	=29
!	!	!LO:N:vis=0	!	!	!	!	!
0D	-ley-	1A	.	2.d\	.	.	.
.	.	.	.	.	.	4f#X\	.
.	.	.	.	8c\L	.	4e\	.
.	.	.	.	8B\J	.	.	.
*	*	*Xlig	*	*	*	*	*
.	.	1A	-ley-	2A/	.	1f#X	-ley-
.	.	.	.	2d\	.	.	.
=30	=30	=30	=30	=30	=30	=30	=30
0GG;	-ſon.	0G;>	-ſon.	0B;>	.	0g;>	-ſon.
!LO:LB:g=original	!	!LO:LB:g=original	!	!LO:LB:g=original	!	!	!
=31||	=31||	=31||	=31||	=31||	=31||	=31||	=31||
*xywh-pl-kk--i-2--0367:10515,3140,3625,923	*xywh-pl-kk--i-2--0367:10515,3140,3625,923	*xywh-pl-kk--i-2--0269:1852,2171,5920,921	*xywh-pl-kk--i-2--0269:1852,2171,5920,921	*xywh-pl-kk--i-2--0168:1877,2983,5839,897	*xywh-pl-kk--i-2--0168:1877,2983,5839,897	*	*
*M3/1	*	*M3/1	*	*M3/1	*	*M3/1	*
*met(0)	*	*met(c|)	*	*met(0)	*	*met(0)	*
*	*	*lig	*	*	*	*	*Xij
!	!	!LO:N:vis=0	!	!	!	!	!
0G	Ky-	0.B	Ky-	0d	Ky-	0g	Ky-
1G	-ri-	.	.	1d	-ri-	1g	-ri-
=32	=32	=32	=32	=32	=32	=32	=32
!	!	!LO:N:vis=0	!	!	!	!	!
0F	-e	0.A	.	0f	-e	0a	-e
1A	e-	.	.	1c	e-	1e	e-
*	*	*Xlig	*	*	*	*	*
=33	=33	=33	=33	=33	=33	=33	=33
*	*	*lig	*	*	*	*	*
!	!	!LO:N:vis=0	!	!	!	!	!
0G	-ley-	0.B	-ri-	0d	-ley-	0g	-ley-
1G	.	.	.	1d	.	1g	.
=34	=34	=34	=34	=34	=34	=34	=34
!	!	!LO:N:vis=0	!	!	!	!	!
0C	-ſon	0.c	.	0e	-ſon	0g	-ſon
1r	.	.	.	1r	.	1r	.
*	*	*Xlig	*	*	*	*	*
=35	=35	=35	=35	=35	=35	=35	=35
*	*ij	*lig	*	*	*ij	*	*
!	!	!LO:N:vis=0	!	!	!	!	!
0GG	Ky-	0.B	-e	0d	Ky-	0g	ky-
*custos:D	*	*	*	*	*	*	*
1GG	-ri-	.	.	1d	-ri-	1g	-ri-
*xywh-pl-kk--i-2--0367:7919,3866,6039,1036	*xywh-pl-kk--i-2--0367:7919,3866,6039,1036	*	*	*	*	*	*
!LO:LB:g=original	!	!	!	!	!	!	!
=36	=36	=36	=36	=36	=36	=36	=36
!	!	!LO:N:vis=0	!	!	!	!	!
0D	-e	0.A	.	0d	-e	0f	-e
1F	e-	.	.	1c	e-	1f	e-
*	*	*Xlig	*	*	*	*	*
=37	=37	=37	=37	=37	=37	=37	=37
*col	*	*	*	*	*	*	*
!	!	!LO:N:vis=1	!	!	!	!	!
*	*	*	*	*	*	*col	*
1C	-ley-	0.G	.	0c	-ley-	1e	-ley-
0GG	.	.	.	.	.	0d	.
.	.	.	.	1B	.	.	.
*Xcol	*	*	*	*	*	*Xcol	*
=38	=38	=38	=38	=38	=38	=38	=38
!	!	!LO:N:vis=0.	!	!	!	!	!
0.C	-ſon	00.G	.	0c	-ſon	1e	-ſon
*	*Xij	*	*	*	*Xij	*	*
.	.	.	.	.	.	1c	ky-
.	.	.	.	1r	.	1c	-ri-
=39	=39	=39	=39	=39	=39	=39	=39
*	*	*	*	*	*	*custos:f	*
0.C	.	.	.	1c	Ky-	1.e	-e
.	.	.	.	1c	-ri-	.	.
*	*	*	*	*	*	*xywh-pl-kk--i-2--0064:8120,3808,6028,947	*xywh-pl-kk--i-2--0064:8120,3808,6028,947
!	!	!	!	!	!	!LO:LB:g=original	!
.	.	.	.	.	.	2f\	.
.	.	.	.	1c	-e	2g\	.
.	.	.	.	.	.	2e\	.
=40	=40	=40	=40	=40	=40	=40	=40
!	!	!LO:N:vis=1	!	!	!	!	!
1G	ky-	0.B	e	1.B	e-	0d	e-
1G	-ri-	.	.	.	.	.	.
.	.	.	.	2c\	.	.	.
1G	-e	.	.	2d\	.	1g	-ley-
.	.	.	.	2B\	-ley-	.	.
=41	=41	=41	=41	=41	=41	=41	=41
!	!	!LO:N:vis=1	!	!	!	!	!
1.A	e-	0.c	.	0A	-ſon	1e	-ſon
.	.	.	.	.	.	2c/	ky-
2B\	.	.	.	.	.	2d\	.
2c\	.	.	.	1r	.	2e\	.
2A\	.	.	.	.	.	2f\	-ri-
=42	=42	=42	=42	=42	=42	=42	=42
*	*	*lig	*	*	*	*	*
!	!	!LO:N:vis=0	!	!	!	!	!
1B	.	0.d	.	1G	Ky-	0g	-e
1G	.	.	.	1G	-ri-	.	.
1B	.	.	.	1G	-e	1g	e-
=43	=43	=43	=43	=43	=43	=43	=43
!	!	!LO:N:vis=0	!	!	!	!	!
0A	.	0.c	.	1.A	e-	0e	-ley-
.	.	.	.	2B\	.	.	.
!	!	!	!	!	!	!LO:TX:t=P:problem=# below	!
1A	-ley-	.	.	2c\	.	1f#X	.
*	*	*	*	*custos:B	*	*	*
.	.	.	.	2A/	.	.	.
*	*	*Xlig	*	*	*	*	*
!	!	!	!	!LO:LB:g=original	!	!	!
=44	=44	=44	=44	=44	=44	=44	=44
*	*	*	*	*xywh-pl-kk--i-2--0168:1894,3699,5874,1000	*xywh-pl-kk--i-2--0168:1894,3699,5874,1000	*	*
*	*	*lig	*	*	*	*	*
!	!	!LO:N:vis=0	!	!	!	!	!
0G	-ſon	0.d	.	2B\	.	0g	-ſon
.	.	.	.	2A\	.	.	.
.	.	.	.	2B\	.	.	.
.	.	.	.	2c\	.	.	.
1r	.	.	.	2d\	.	1r	.
.	.	.	.	2B\	.	.	.
=45	=45	=45	=45	=45	=45	=45	=45
!	!	!LO:N:vis=0	!	!	!	!	!
1C	Ky-	0.e	.	2c\	.	1e	ky-
.	.	.	.	2d\	.	.	.
1C	-ri-	.	.	2e\	.	1e	-ri-
.	.	.	.	2d\	.	.	.
1C	-e	.	.	2c\	.	1e	-e
.	.	.	.	2B\	.	.	.
*	*	*Xlig	*	*	*	*	*
=46	=46	=46	=46	=46	=46	=46	=46
!	!	!LO:N:vis=1	!	!	!	!	!
1.D	e-	0.d	.	0A	.	1.f	e-
2E\	.	.	.	.	.	2g\	.
2F\	.	.	.	1A	-ley-	2a\	.
2D/	.	.	.	.	.	2f\	.
=47	=47	=47	=47	=47	=47	=47	=47
!	!	!LO:N:vis=1	!	!	!	!	!
0E	.	0.B	.	1G	-ſon	0g	.
.	.	.	.	1G	Ky-	.	.
1E	-ley-	.	.	1G	-ri-	1g	-ley-
=48	=48	=48	=48	=48	=48	=48	=48
!	!	!LO:N:vis=1	!	!	!	!	!
0D	-ſon	0.d	.	1A	-e	0f#X	-ſon
.	.	.	.	2d\	e-	.	.
.	.	.	.	2c\	.	.	.
*custos:G	*	*	*	*	*	*	*
1r	.	.	.	2B\	.	1r	.
.	.	.	.	2A/	.	.	.
*xywh-pl-kk--i-2--0368:1874,752,5785,1035	*xywh-pl-kk--i-2--0368:1874,752,5785,1035	*	*	*	*	*	*
!LO:LB:g=original	!	!	!	!	!	!	!
=49	=49	=49	=49	=49	=49	=49	=49
*	*	*lig	*	*	*	*	*
!	!	!LO:N:vis=0	!	!	!	!	!
1G	ky-	0.d	e-	2B\	.	1g	ky-
.	.	.	.	2c\	.	.	.
1G	-ri-	.	.	2d\	.	1g	-ri-
.	.	.	.	2c\	.	.	.
1G	-e	.	.	1B	.	1g	-e
=50	=50	=50	=50	=50	=50	=50	=50
!	!	!LO:N:vis=0	!	!	!	!	!
1A	e-	0.c	.	0A	.	1e	e-
2AA/	.	.	.	.	.	2c/	.
2BB/	.	.	.	.	.	2d\	.
2C/	.	.	.	1A	.	2e\	.
*	*	*	*	*	*	*custos:e	*
2D/	.	.	.	.	.	2f\	.
*	*	*Xlig	*	*	*	*	*
*	*	*	*	*	*	*xywh-pl-kk--i-2--0065:1975,625,5850,985	*xywh-pl-kk--i-2--0065:1975,625,5850,985
!	!	!	!	!	!	!LO:LB:g=original	!
=51	=51	=51	=51	=51	=51	=51	=51
*	*	*lig	*	*	*	*	*
!	!	!LO:N:vis=0	!	!	!	!	!
0E	.	0.B	.	0A	.	0e	-ley-
1E	-ley-	.	.	1G#X	-ley-	1e	-ſon
=52	=52	=52	=52	=52	=52	=52	=52
!	!	!LO:N:vis=0	!	!	!	!	!
0AA	-ſon	0.A	.	0A	-ſon	1c	Ky-
.	.	.	.	.	.	1c	-ri-
1r	.	.	.	1r	.	1c	-e
*	*	*Xlig	*	*	*	*	*
=53	=53	=53	=53	=53	=53	=53	=53
*	*	*lig	*	*	*	*	*
!	!	!LO:N:vis=0	!	!	!	!	!
1C	ky-	0.G	.	1c	Ky-	1.e	e-
1C	-ri-	.	.	1c	-ri-	.	.
.	.	.	.	.	.	2f\	.
1C	-e	.	.	1c	-e	2g\	.
.	.	.	.	.	.	2e\	.
=54	=54	=54	=54	=54	=54	=54	=54
!	!	!LO:N:vis=0	!	!	!	!	!
1.F	e-	0.A	.	1.c	e	2f\	.
.	.	.	.	.	.	2g\	.
.	.	.	.	.	.	1a	.
2G\	.	.	.	2B\	.	.	.
1A	.	.	.	1A	.	2e\	.
.	.	.	.	.	.	2f\	.
*	*	*Xlig	*	*	*	*	*
=55	=55	=55	=55	=55	=55	=55	=55
*	*	*lig	*	*	*	*	*
!	!	!LO:N:vis=0	!	!	!	!	!
1G	.	0.B	.	2d\	e-	1.g	.
.	.	.	.	2c\	.	.	.
2GG/	.	.	.	2B\	.	.	.
*	*	*	*	*custos:G	*	*	*
2AA/	.	.	.	2A/	.	2f\	.
*	*	*	*	*xywh-pl-kk--i-2--0168:7751,577,6106,1000	*xywh-pl-kk--i-2--0168:7751,577,6106,1000	*	*
!	!	!	!	!LO:LB:g=original	!	!	!
2BB/	.	.	.	1G	.	2d\	.
2C/	.	.	.	.	.	2e\	.
=56	=56	=56	=56	=56	=56	=56	=56
!	!	!LO:N:vis=0	!	!	!	!	!
*	*	*	*	*	*	*col	*
0D	.	0.A	.	0d	.	0f#X	.
1C	.	.	.	1e	.	0g	.
*	*	*Xlig	*	*	*	*	*
=57	=57	=57	=57	=57	=57	=57	=57
!	!	!LO:N:vis=1	!	!	!	!	!
0D	.	0.A	ley-	0.d	-ley-	.	.
.	.	.	.	.	.	0f#X	-ley-
1D	-ley-	.	.	.	.	.	.
*	*	*	*	*	*	*Xcol	*
=58	=58	=58	=58	=58	=58	=58	=58
*custos:G	*	*	*	*	*	*	*
!	!	!LO:TX:t=P:problem= w źródle brevis zamiast longi	!	!	!	!	!
!LO:TX:t=P:problem= w źródle longa bez kropki	!	!	!	!	!	!	!
!LO:N:vis=00	!	!LO:N:vis=0	!	!	!	!	!
00.GG	-ſon	000.G;	-ſon.	0.B	-ſon	0g	-ſon
.	.	.	.	.	.	1d	Ky-
!LO:LB:g=original	!	!	!	!	!	!	!
=59	=59	=59	=59	=59	=59	=59	=59
.	.	.	.	1d	ky-	1B	-ri-
.	.	.	.	1B	-ri-	2d/	-e
.	.	.	.	.	.	2c/	.
.	.	.	.	2d\	-e	2B/	.
.	.	.	.	2c\	.	2A/	.
*xywh-pl-kk--i-2--0368:1856,1624,5921,917	*xywh-pl-kk--i-2--0368:1856,1624,5921,917	*	*	*	*	*	*
=60	=60	=60	=60	=60	=60	=60	=60
*	*	*	*	*	*	*custos:A	*
1G	ky-	.	.	2B\	.	2G/	.
*	*	*	*	*	*	*xywh-pl-kk--i-2--0065:1928,1490,5841,920	*xywh-pl-kk--i-2--0065:1928,1490,5841,920
!	!	!	!	!	!	!LO:LB:g=original	!
.	.	.	.	2A/	.	2A/	.
1E	-ri-	.	.	2G/	.	1B	.
.	.	.	.	2A/	.	.	.
2G\	-e	.	.	1B	.	1G	.
2F\	.	.	.	.	.	.	.
=61	=61	=61	=61	=61	=61	=61	=61
2E\	.	.	.	0c	e-	1g	ky-
2D/	.	.	.	.	.	.	.
2C/	.	.	.	.	.	1e	-ri-
2D/	.	.	.	.	.	.	.
2E\	.	.	.	1G	-ley-	2g\	-e
2D/	.	.	.	.	.	2f\	.
=62	=62	=62	=62	=62	=62	=62	=62
!	!	!LO:TX:t=P:problem= w źródle brevis zamiast longi	!	!	!	!	!
!	!	!LO:N:vis=0	!	!	!	!	!
0C	e-	000.G	.	0c	-ſon	2e\	.
.	.	.	.	.	.	2d\	.
.	.	.	.	.	.	2c/	.
.	.	.	.	.	.	2d\	.
1C	-ley-	.	.	1r	.	1e	[e]-
=63	=63	=63	=63	=63	=63	=63	=63
0GG	-ſon	.	.	1d	ky-	0B	-ley-
.	.	.	.	1B	-ri-	.	.
1G	ky-	.	.	1d	-e	1B	-ſon
=64	=64	=64	=64	=64	=64	=64	=64
1E	-ri-	.	.	1c	e-	1g	ky-
1C	-e	.	.	2e\	.	1e	-ri-
.	.	.	.	2d\	.	.	.
2E\	e-	.	.	2c\	.	2g\	-e-
2D/	.	.	.	2B\	.	2f\	.
=65	=65	=65	=65	=65	=65	=65	=65
0C	.	.	.	2c\	.	2e\	.
.	.	.	.	2d\	.	2d\	.
.	.	.	.	1e	.	1c	.
1BB	.	.	.	1d	.	1d	.
=66	=66	=66	=66	=66	=66	=66	=66
!	!	!LO:TX:t=P:problem= w źródle brevis zamiast longi	!	!	!	!	!
!	!	!LO:N:vis=0	!	!	!	!	!
2C/	.	00.G	.	0c	.	0e	.
2D/	.	.	.	.	.	.	.
2E\	.	.	.	.	.	.	.
2F\	.	.	.	.	.	.	.
1G	.	.	.	1B	.	1d	.
=67	=67	=67	=67	=67	=67	=67	=67
*	*	*	*	*col	*	*	*
1C	.	.	.	1e	-ley-	0c	.
0GG	-ley-	.	.	0d	.	.	.
.	.	.	.	.	.	1B	-ley-
*	*	*	*	*Xcol	*	*	*
=68	=68	=68	=68	=68	=68	=68	=68
*M2/1	*	*yyM2/1	*	*M2/1	*	*M2/1	*
*met(c|)	*	*yymet(c|)	*	*met(c|)	*	*met(c|)	*
!	!	!LO:TX:t=P:problem= w źródle brevis zamiast longi	!	!	!	!	!
!	!	!LO:N:vis=0	!	!	!	!	!
1C	-ſon	000G	.	1c	-ſon	1c	-ſon
*	*	*	*	*custos:B	*	*	*
2r	.	.	.	2r	.	2r	.
*	*	*	*	*xywh-pl-kk--i-2--0168:7889,1439,2320,871	*xywh-pl-kk--i-2--0168:7889,1439,2320,871	*	*
!	!	!	!	!LO:LB:g=original	!	!	!
*	*ij	*	*	*	*	*	*ij
2G\	ky-	.	.	2B\	ky-	2d\	ky-
=69	=69	=69	=69	=69	=69	=69	=69
2E\	-ri-	.	.	2c\	-ri-	2e\	-ri-
4G\	-e	.	.	2B\	-e	2d\	-e
4F\	.	.	.	.	.	.	.
4E\	.	.	.	2.c\	e-	2.e\	e-
4D/	.	.	.	.	.	.	.
1C	.	.	.	.	.	.	.
.	.	.	.	4d\	.	4f\	.
=70	=70	=70	=70	=70	=70	=70	=70
.	.	.	.	2e\	.	2.g\	.
2BB/	e-	.	.	2d\	.	.	.
.	.	.	.	.	.	4f\	.
1C	-ley-	.	.	1.c	-ley-	1e	-ley-
=71	=71	=71	=71	=71	=71	=71	=71
0GG;>	-ſon	.	.	.	.	0d;	-ſon
*	*Xij	*	*	*	*	*	*Xij
.	.	.	.	4B\	.	.	.
.	.	.	.	4A/	.	.	.
!	!	!	!	!LO:N:vis=0	!	!	!
.	.	.	.	1B;	-ſon.	.	.
==	==	==	==	==	==	==	==
*-	*-	*-	*-	*-	*-	*-	*-
!!!system-decoration: [(s1,s2,s3,s4)]
!!!RDF**kern: < = above
!!!RDF**kern: > = below
!!!ENC: Andrzej Kubiczek
!!!END: 2022-01-16
!!!ENC: Jan Barakat
!!!END: 2022-01-22
!!!IIIF: https://repozytorium.nifc.pl/islandora/object/pl-kk%3A750/datastream/IIIF/view
!!!ENC-iiif: Marta Opryszak
!!!END-iiif: 2022-08-24

